src/icons/svgs/16/turn-down-right.svg

<svg width="16" height="16" viewBox="0 0 16 16" fill="none" xmlns="http://www.w3.org/2000/svg">
<path d="M11.7218 12.8332L14.7898 10.1249C15.0701 9.87754 15.0701 9.45593 14.7898 9.20854L11.7218 6.50023C11.5305 6.33138 11.2514 6.28619 11.0117 6.38549C10.772 6.48479 10.617 6.70971 10.617 6.9584L10.6425 9.04161H2.31488V3.62499C2.31488 3.27995 2.0204 3 1.65744 3C1.29448 3 1 3.27995 1 3.62499V9.66661C1 10.0117 1.29448 10.2916 1.65744 10.2916H10.6425L10.6424 12.3749C10.6424 12.6235 10.7973 12.8486 11.0372 12.9478C11.277 13.047 11.53 13.0025 11.7218 12.8332Z" fill="black"/>
</svg>

<svg width="16" height="16" viewBox="0 0 16 16" xmlns="http://www.w3.org/2000/svg">
    <path d="m11.722 12.833 3.068-2.708a.604.604 0 0 0 0-.916L11.722 6.5a.684.684 0 0 0-.71-.115.625.625 0 0 0-.395.573l.025 2.084H2.316V3.625C2.315 3.28 2.02 3 1.657 3 1.294 3 1 3.28 1 3.625v6.042c0 .345.294.625.657.625h8.986v2.083c0 .248.154.474.394.573.24.099.493.054.685-.115z"/>
</svg>
